icons/Map.svg

<svg width="24" height="24" viewBox="0 0 24 24" fill="none" xmlns="http://www.w3.org/2000/svg">
<g id="Map">
<path id="Vector" d="M3.45001 8.19997L8.45001 4.86997C8.61329 4.76245 8.80451 4.70514 9.00001 4.70514C9.19552 4.70514 9.38673 4.76245 9.55001 4.86997L14.45 8.12997C14.6133 8.2375 14.8045 8.29481 15 8.29481C15.1955 8.29481 15.3867 8.2375 15.55 8.12997L19.45 5.53997C19.6004 5.44093 19.7748 5.38433 19.9547 5.37616C20.1346 5.36799 20.3133 5.40855 20.4721 5.49357C20.6308 5.57858 20.7637 5.70488 20.8566 5.85914C20.9495 6.0134 20.9991 6.18989 21 6.36997V15C21.0008 15.1664 20.9601 15.3303 20.8815 15.477C20.8029 15.6237 20.689 15.7485 20.55 15.84L15.55 19.17C15.3867 19.2775 15.1955 19.3348 15 19.3348C14.8045 19.3348 14.6133 19.2775 14.45 19.17L9.55001 15.91C9.38673 15.8024 9.19552 15.7451 9.00001 15.7451C8.80451 15.7451 8.61329 15.8024 8.45001 15.91L4.55001 18.5C4.39677 18.6011 4.21866 18.658 4.0352 18.6646C3.85174 18.6712 3.67001 18.6271 3.50993 18.5372C3.34985 18.4474 3.21759 18.3152 3.12764 18.1552C3.0377 17.9951 2.99354 17.8134 3.00001 17.63V8.99997C3.00569 8.84039 3.04951 8.68448 3.1278 8.5453C3.20609 8.40611 3.31658 8.2877 3.45001 8.19997Z" stroke="#00153F" stroke-width="1.5" stroke-linecap="round" stroke-linejoin="round"/>
<path id="Vector_2" d="M9 4.70001V15.7" stroke="#00153F" stroke-width="1.5" stroke-linecap="round" stroke-linejoin="round"/>
<path id="Vector_3" d="M15 8.29999V19.3" stroke="#00153F" stroke-width="1.5" stroke-linecap="round" stroke-linejoin="round"/>
</g>
</svg>

<svg xmlns="http://www.w3.org/2000/svg" fill="none" viewBox="0 0 24 24"><path stroke="currentColor" stroke-linecap="round" stroke-linejoin="round" stroke-width="1.5" d="m3.45 8.2 5-3.33a1 1 0 0 1 1.1 0l4.9 3.26a1 1 0 0 0 1.1 0l3.9-2.59a1 1 0 0 1 1.55.83V15a1 1 0 0 1-.45.84l-5 3.33a1 1 0 0 1-1.1 0l-4.9-3.26a1 1 0 0 0-1.1 0l-3.9 2.59A1 1 0 0 1 3 17.63V9a1 1 0 0 1 .45-.8ZM9 4.7v11m6-7.4v11"/></svg>
